public/assets/icons/status_dangerzone.svg

<?xml version="1.0" standalone="no"?>
<!DOCTYPE svg PUBLIC "-//W3C//DTD SVG 1.1//EN" "http://www.w3.org/Graphics/SVG/1.1/DTD/svg11.dtd" >
<svg xmlns="http://www.w3.org/2000/svg" xmlns:xlink="http://www.w3.org/1999/xlink" version="1.1" viewBox="0 -64 1024 1024" width="512" height="512">
  <g transform="matrix(1 0 0 -1 0 960)">
   <path fill="currentColor"
d="M375 858q-42 0 -72 -30t-30 -73v-410q-32 -24 -50 -60t-18 -76q0 -71 50 -121t120 -50q71 0 121 50t50 121q0 40 -18 76t-50 60v410q0 43 -30 73t-73 30v0zM683 755l-137 -102v-239l137 -68l-69 102h205l-170 68l238 171l-273 -68zM341 619h69v-314q30 -10 49 -36.5
t19 -59.5q0 -42 -30 -72t-73 -30q-42 0 -72 30t-30 72q0 33 19 59.5t49 36.5v314z" />
  </g>

</svg>

<?xml version="1.0" encoding="UTF-8" standalone="no"?>
<svg
   version="1.1"
   viewBox="0 -64 1024 1024"
   width="512"
   height="512"
   id="svg453"
   sodipodi:docname="status_dangerzone.svg"
   inkscape:version="1.2.2 (732a01da63, 2022-12-09)"
   xmlns:inkscape="http://www.inkscape.org/namespaces/inkscape"
   xmlns:sodipodi="http://sodipodi.sourceforge.net/DTD/sodipodi-0.dtd"
   xmlns="http://www.w3.org/2000/svg"
   xmlns:svg="http://www.w3.org/2000/svg">
  <defs
     id="defs457" />
  <sodipodi:namedview
     id="namedview455"
     pagecolor="#ffffff"
     bordercolor="#000000"
     borderopacity="0.25"
     inkscape:showpageshadow="2"
     inkscape:pageopacity="0.0"
     inkscape:pagecheckerboard="0"
     inkscape:deskcolor="#d1d1d1"
     showgrid="false"
     inkscape:zoom="1.6191406"
     inkscape:cx="236.23643"
     inkscape:cy="256.30881"
     inkscape:window-width="1920"
     inkscape:window-height="1009"
     inkscape:window-x="-8"
     inkscape:window-y="-8"
     inkscape:window-maximized="1"
     inkscape:current-layer="svg453" />
  <g
     transform="matrix(1,0,0,-1,-34,896)"
     id="g451">
    <path
       fill="currentColor"
       d="m 375,858 q -42,0 -72,-30 -30,-30 -30,-73 V 345 q -32,-24 -50,-60 -18,-36 -18,-76 0,-71 50,-121 50,-50 120,-50 71,0 121,50 50,50 50,121 0,40 -18,76 -18,36 -50,60 v 410 q 0,43 -30,73 -30,30 -73,30 z M 683,755 546,653 V 414 L 683,346 614,448 H 819 L 649,516 887,687 614,619 Z M 341,619 h 69 V 305 q 30,-10 49,-36.5 19,-26.5 19,-59.5 0,-42 -30,-72 -30,-30 -73,-30 -42,0 -72,30 -30,30 -30,72 0,33 19,59.5 19,26.5 49,36.5 z"
       id="path449" />
  </g>
</svg>
